packages/amis-editor-core/src/icons/v3/editor-help.svg

<?xml version="1.0" encoding="UTF-8"?>
<svg viewBox="0 0 16 16" version="1.1" xmlns="http://www.w3.org/2000/svg" xmlns:xlink="http://www.w3.org/1999/xlink">
    <g id="组织台优化" >
      <path d="M7.97632353,0.999965703 L8.21701159,1.00322225 C11.9722239,1.11753788 14.9873417,4.19082077 15.000074,7.97633387 C15.0129177,11.8425619 11.8897221,14.9870716 8.02366613,15.000074 C4.15743812,15.0129177 1.01292838,11.8897221 0.999925953,8.02366613 C0.987082306,4.15743812 4.11027794,1.01292838 7.97632353,0.999965703 L7.97632353,0.999965703 Z M7.97966613,1.99992607 L7.75474999,2.00485275 C4.54563645,2.13390334 1.98916798,4.781671 1.99992604,8.02032353 C2.01107092,11.3340696 4.7063535,14.011083 8.02032353,14.000074 C11.3340696,13.9889291 14.011083,11.2936465 14.000074,7.97967647 C13.9889291,4.66593042 11.2936465,1.988917 7.97966613,1.99992607 L7.97966613,1.99992607 Z M8.0093,10.7998972 C8.3403,10.7989 8.6103,11.0659 8.61130279,11.3979 C8.6123,11.7299 8.3443,11.9989 8.0133,11.9999028 C7.6823,12.0009 7.4123,11.7329 7.41129721,11.4019 C7.4103,11.0709 7.6783,10.8009 8.0093,10.7998972 Z M7.98611341,4.01266536 C9.28683124,4.00908706 10.3539513,5.0161652 10.4409496,6.27076675 L10.4475845,6.4505084 C10.4575235,6.78071296 10.3776843,7.19280999 10.1230379,7.60095692 C9.86473181,8.01496973 9.46650263,8.33470549 8.92388677,8.52325386 L8.65103869,8.60770079 C8.53085298,8.65695379 8.50710049,8.76654285 8.50491346,9.35248528 L8.505498,9.75928491 L7.505502,9.76211509 L7.50532107,9.46563854 C7.51227643,8.26932017 7.64065232,7.87668984 8.33413151,7.65689612 L8.45501989,7.62175601 C8.86107583,7.51289003 9.11810576,7.32249086 9.27462373,7.07162403 C9.38645655,6.8923785 9.43546677,6.70573944 9.44608088,6.5615877 L9.44750344,6.45955527 C9.44452832,5.65775925 8.79217473,5.01046268 7.98935886,5.01268881 C7.23432391,5.01549584 6.61601863,5.59301572 6.54774505,6.32946662 L6.54149035,6.46931212 L5.54146538,6.47208788 C5.53773614,5.11820489 6.63161008,4.01772967 7.98611341,4.01266536 Z" id="图标-填色" stroke="none"></path>
    </g>
</svg>

<svg viewBox="0 0 16 16" xmlns="http://www.w3.org/2000/svg"><path d="m7.976 1 .241.003A7 7 0 1 1 7.977 1Zm.004 1-.225.005A6 6 0 1 0 7.98 2Zm.03 8.8a.6.6 0 1 1 .004 1.2.6.6 0 0 1-.005-1.2Zm-.024-6.787c1.3-.004 2.368 1.003 2.455 2.258l.007.18c.01.33-.07.742-.325 1.15-.258.414-.656.734-1.2.922l-.272.085c-.12.049-.144.159-.146.744v.407l-1 .003v-.296c.007-1.197.136-1.59.83-1.81l.12-.034c.406-.11.663-.3.82-.55.111-.18.16-.366.171-.51l.002-.102a1.453 1.453 0 0 0-2.9-.13l-.007.14-1 .002a2.453 2.453 0 0 1 2.445-2.46Z"/></svg>
